X:260
T:Miss Walsh's Fancy
T:Kane's
R:jig
H:Also with parts switched around CCBBAA, see #297
Z:id:hn-jig-260
M:6/8
K:G
DEG BAG|dGG BAG|DEG BAG|ABA AGE|
DEG BAG|dGG BAG|gfg dBG|AGE G3:|
|:~g3 ded|BGB def|g2e dBG|AGE GED|
~g3 ded|~B3 def|g2e dBG|AGE G3:|
|:DEG Bdd|cee Bdd|DEG BdB|AGA AGE|
DEG Bdd|cee Bdd|~g3 dBG|AGE G3:|

